X: 35
M: 4/4
L: 1/8
K: F
"F"F>G A>F "E/C7"E<G C2 | "F"F>C A>C "A/F7"c2 c2 |\
"Bb"d>c (3Bcd "A/F"c>A F>A | "B/G7"(3GAG (3FED "C7"C2 (3CDE |
"F"F>G A>F "E/C7"E<G C2 | "F"F>C A>C "A/F7"c2 c2 |\
"Bb"d>c (3Bcd "A/F"c>A F>A |1 "Gm"(3GAB "C7"(3cAG "F"F2 A>G :|2 "Gm"(3GAB "C7"(3cAG "F"F2 "C7"F>E ||
"Dm"D>E F>G "A/Dm"A<F D>A | "Gm"B>A (3GAB "A7"A2 A>F |\
"Dm"D>E F>G "A/Dm"A<F D>A | "A/Dm"(3GAG (3FED "C#/A7"^C2 A,>C |
"Dm"D>E F>G "A/Dm"A<F D>A | "Gm"B>A (3GAB "A7"A2 A>F |\
"Dm"D>E F>G "A/Dm"A<F D>A | "A7"(3GAG (3^CDE "Dm"D2 "C7"=C2 |
"F"F>G A>F "E/C7"E<G C2 | "F"F>C A>C "A/F7"c2 c2 |\
"Bb"d>c (3Bcd "A/F"c>A F>A | "B/G7"(3GAG (3FED "C7"C2 (3CDE |
"F"F>G A>F "E/C7"E<G C2 | "F"F>C A>C "A/F7"c2 c2 |\
"Bb"d>c (3Bcd "A/F"c>A F>A | "Gm"(3GAB "C7"(3cAG "F"A<F F2 |]


